pix/icon.svg

<!DOCTYPE svg PUBLIC "-//W3C//DTD SVG 1.1//EN" "http://www.w3.org/Graphics/SVG/1.1/DTD/svg11.dtd" [
	<!ENTITY ns_flows "http://ns.adobe.com/Flows/1.0/">
]><svg xmlns="http://www.w3.org/2000/svg" width="24" height="24" viewBox="0 0 24 24" preserveAspectRatio="xMinYMid meet" overflow="visible"><linearGradient id="a" gradientUnits="userSpaceOnUse" x1="11.999" x2="11.999" y2="24.001"><stop offset="0" stop-color="#90C50E"/><stop offset="1" stop-color="#70A034"/></linearGradient><path d="M21.1 12.3c1 0 1.7.9 1.7.9.3.4.7.8.9.8s.3-.5.3-1V8c0-.5-.5-1-1-1h-3c-.5 0-1-.1-1-.3 0-.2.3-.7.7-1.1 0 0 .8-.9.8-2.1C20.5 1.6 18.9 0 17 0s-3.5 1.6-3.5 3.5c0 1.2.8 2.1.8 2.1.4.4.7.9.7 1.1 0 .2-.5.3-1 .3H8c-.5 0-1 .5-1 1v6c0 .5-.1 1-.3 1s-.7-.3-1.1-.7c0 0-.9-.8-2.1-.8C1.6 13.5 0 15.1 0 17s1.6 3.5 3.5 3.5c1.2 0 2.1-.8 2.1-.8.4-.4.9-.7 1.1-.7s.3.5.3 1v3c0 .5.5 1 1 1h4c.5 0 1-.1 1-.3s-.3-.6-.7-1c0 0-.6-.6-.6-1.6 0-1.4 1.3-2.5 2.7-2.5 1.4 0 2.4 1.1 2.4 2.5 0 1-.9 1.7-.9 1.7-.4.3-.8.7-.8.9s.5.3 1 .3h7c.5 0 1-.5 1-1v-6c0-.5-.1-1-.3-1s-.6.3-1 .7c0 0-.6.6-1.6.6-1.4 0-2.5-1.3-2.5-2.7s1-2.3 2.4-2.3z" fill="url(#a)"/><linearGradient id="b" gradientUnits="userSpaceOnUse" x1="11.999" y1="1" x2="11.999" y2="23.001"><stop offset="0" stop-color="#D9F991"/><stop offset=".239" stop-color="#D7F88D"/><stop offset=".45" stop-color="#D1F383"/><stop offset=".651" stop-color="#C6EC71"/><stop offset=".844" stop-color="#B7E257"/><stop offset="1" stop-color="#A8D73D"/></linearGradient><path d="M17 23c.4-.4.7-1.1.7-1.9 0-2-1.5-3.5-3.4-3.5-2 0-3.7 1.6-3.7 3.5 0 .9.3 1.5.6 1.9H8v-3c0-1.5-.7-2-1.3-2-.6 0-1.3.6-1.7.9 0 0-.7.6-1.5.6C2.1 19.5 1 18.4 1 17s1.1-2.5 2.5-2.5c.8 0 1.4.6 1.5.6.3.3 1.1.9 1.7.9.6 0 1.3-.5 1.3-2V8h6c1.5 0 2-.7 2-1.3 0-.6-.5-1.3-.9-1.7 0 0-.6-.7-.6-1.5C14.5 2.1 15.6 1 17 1s2.5 1.1 2.5 2.5c0 .8-.6 1.5-.6 1.5-.4.4-.9 1.1-.9 1.7 0 .6.5 1.3 2 1.3h3v4c-.4-.4-1.1-.7-1.9-.7-2 0-3.5 1.5-3.5 3.4 0 2 1.6 3.7 3.5 3.7.9 0 1.5-.3 1.9-.6V23h-6z" fill="url(#b)"/><linearGradient id="c" gradientUnits="userSpaceOnUse" x1="11.999" y1="2" x2="11.999" y2="22.001"><stop offset="0" stop-color="#B3E810"/><stop offset="1" stop-color="#90C60D"/></linearGradient><path d="M18.6 22c.1-.3.1-.6.1-.9 0-2.5-1.9-4.5-4.4-4.5-2.5 0-4.7 2.1-4.7 4.5 0 .3 0 .6.1.9H9v-2c0-2.1-1.2-3-2.3-3 1.1 0 2.3-.9 2.3-3V9h5c2.1 0 3-1.2 3-2.3 0-.7-.4-1.5-1.2-2.4-.1-.1-.3-.5-.3-.8 0-.8.7-1.5 1.5-1.5s1.5.7 1.5 1.5c0 .3-.3.7-.3.8-.8.9-1.2 1.7-1.2 2.4 0 1.1.9 2.3 3 2.3h2v1.4c-.3-.1-.6-.1-.9-.1-2.5 0-4.5 1.9-4.5 4.4 0 2.5 2.1 4.7 4.5 4.7.3 0 .6 0 .9-.1V22h-3.4zM3.5 18.5c-.8 0-1.5-.7-1.5-1.5s.7-1.5 1.5-1.5c.3 0 .7.3.8.3.9.8 1.7 1.2 2.4 1.2-.7 0-1.5.4-2.4 1.2-.1.1-.5.3-.8.3z" fill="url(#c)"/></svg>

<?xml version="1.0" encoding="UTF-8" standalone="no"?>
<svg width="25px" height="24px" viewBox="0 0 25 24" version="1.1" xmlns="http://www.w3.org/2000/svg" xmlns:xlink="http://www.w3.org/1999/xlink">

    <title>Group</title>
    <desc>Created with KI.</desc>
    <defs></defs>
    <g id="Page-1" stroke="none" stroke-width="1" fill="none" fill-rule="evenodd">
        <g id="Group" fill="#4c4c4c">
            <path d="M21.1,12.3 C22.1,12.3 22.8,13.2 22.8,13.2 C23.1,13.6 23.5,14 23.7,14 C23.9,14 24,13.5 24,13 L24,8 C24,7.5 23.5,7 23,7 L20,7 C19.5,7 19,6.9 19,6.7 C19,6.5 19.3,6 19.7,5.6 C19.7,5.6 20.5,4.7 20.5,3.5 C20.5,1.6 18.9,0 17,0 C15.1,0 13.5,1.6 13.5,3.5 C13.5,4.7 14.3,5.6 14.3,5.6 C14.7,6 15,6.5 15,6.7 C15,6.9 14.5,7 14,7 L8,7 C7.5,7 7,7.5 7,8 L7,14 C7,14.5 6.9,15 6.7,15 C6.5,15 6,14.7 5.6,14.3 C5.6,14.3 4.7,13.5 3.5,13.5 C1.6,13.5 0,15.1 0,17 C0,18.9 1.6,20.5 3.5,20.5 C4.7,20.5 5.6,19.7 5.6,19.7 C6,19.3 6.5,19 6.7,19 C6.9,19 7,19.5 7,20 L7,23 C7,23.5 7.5,24 8,24 L12,24 C12.5,24 13,23.9 13,23.7 C13,23.5 12.7,23.1 12.3,22.7 C12.3,22.7 11.7,22.1 11.7,21.1 C11.7,19.7 13,18.6 14.4,18.6 C15.8,18.6 16.8,19.7 16.8,21.1 C16.8,22.1 15.9,22.8 15.9,22.8 C15.5,23.1 15.1,23.5 15.1,23.7 C15.1,23.9 15.6,24 16.1,24 L23.1,24 C23.6,24 24.1,23.5 24.1,23 L24.1,17 C24.1,16.5 24,16 23.8,16 C23.6,16 23.2,16.3 22.8,16.7 C22.8,16.7 22.2,17.3 21.2,17.3 C19.8,17.3 18.7,16 18.7,14.6 C18.7,13.2 19.7,12.3 21.1,12.3 L21.1,12.3 Z" id="Shape" fill-rule="nonzero"></path>
            <path d="M17,23 C17.4,22.6 17.7,21.9 17.7,21.1 C17.7,19.1 16.2,17.6 14.3,17.6 C12.3,17.6 10.6,19.2 10.6,21.1 C10.6,22 10.9,22.6 11.2,23 L8,23 L8,20 C8,18.5 7.3,18 6.7,18 C6.1,18 5.4,18.6 5,18.9 C5,18.9 4.3,19.5 3.5,19.5 C2.1,19.5 1,18.4 1,17 C1,15.6 2.1,14.5 3.5,14.5 C4.3,14.5 4.9,15.1 5,15.1 C5.3,15.4 6.1,16 6.7,16 C7.3,16 8,15.5 8,14 L8,8 L14,8 C15.5,8 16,7.3 16,6.7 C16,6.1 15.5,5.4 15.1,5 C15.1,5 14.5,4.3 14.5,3.5 C14.5,2.1 15.6,1 17,1 C18.4,1 19.5,2.1 19.5,3.5 C19.5,4.3 18.9,5 18.9,5 C18.5,5.4 18,6.1 18,6.7 C18,7.3 18.5,8 20,8 L23,8 L23,12 C22.6,11.6 21.9,11.3 21.1,11.3 C19.1,11.3 17.6,12.8 17.6,14.7 C17.6,16.7 19.2,18.4 21.1,18.4 C22,18.4 22.6,18.1 23,17.8 L23,23 L17,23 Z" id="Shape" fill-rule="nonzero"></path>
            <path d="M18.6,22 C18.7,21.7 18.7,21.4 18.7,21.1 C18.7,18.6 16.8,16.6 14.3,16.6 C11.8,16.6 9.6,18.7 9.6,21.1 C9.6,21.4 9.6,21.7 9.7,22 L9,22 L9,20 C9,17.9 7.8,17 6.7,17 C7.8,17 9,16.1 9,14 L9,9 L14,9 C16.1,9 17,7.8 17,6.7 C17,6 16.6,5.2 15.8,4.3 C15.7,4.2 15.5,3.8 15.5,3.5 C15.5,2.7 16.2,2 17,2 C17.8,2 18.5,2.7 18.5,3.5 C18.5,3.8 18.2,4.2 18.2,4.3 C17.4,5.2 17,6 17,6.7 C17,7.8 17.9,9 20,9 L22,9 L22,10.4 C21.7,10.3 21.4,10.3 21.1,10.3 C18.6,10.3 16.6,12.2 16.6,14.7 C16.6,17.2 18.7,19.4 21.1,19.4 C21.4,19.4 21.7,19.4 22,19.3 L22,22 L18.6,22 Z" id="Path"></path>
            <path d="M3.5,18.5 C2.7,18.5 2,17.8 2,17 C2,16.2 2.7,15.5 3.5,15.5 C3.8,15.5 4.2,15.8 4.3,15.8 C5.2,16.6 6,17 6.7,17 C6,17 5.2,17.4 4.3,18.2 C4.2,18.3 3.8,18.5 3.5,18.5 L3.5,18.5 Z" id="Path"></path>
        </g>
    </g>
</svg>
